public/showcase/resources/images/home/amex.svg

<svg height="42" viewBox="0 0 112 42" width="112" xmlns="http://www.w3.org/2000/svg"><g fill="#fff" transform=""><path d="m10.2105482 10.4404721-2.17910732-5.42804343-2.16665303 5.42804343zm48.005446-2.16144305c-.4375088.27146377-.9549665.28049888-1.5748711.28049888h-3.8676745v-3.02429535h3.9203041c.5548207 0 1.1337465.02546256 1.5097872.24559052.4130019.19836158.6685167.6205473.6685167 1.20372212 0 .59508473-.2430605 1.07394518-.6560624 1.29448383zm27.5915811 2.16144305-2.2032126-5.42804343-2.1911599 5.42804343zm-51.4323977 5.875281h-3.26384l-.0120526-10.66388556-4.6165418 10.66388556h-2.7953962l-4.6285944-10.67333135v10.67333135h-6.4754521l-1.2233374-3.0370267h-6.62892174l-1.23579172 3.0370267h-3.45788663l5.70127445-13.61590008h4.73023784l5.4148247 12.89144908v-12.89144908h5.1962711l4.1665787 9.23674998 3.8274992-9.23674998h5.3007269v13.61590008zm13.008355 0h-10.6356027v-13.61590008h10.6356027v2.83537956h-7.4517115v2.45426249h7.2729315v2.79102543h-7.2729315v2.7191553h7.4517115zm14.9958262-9.94888037c0 2.17088881-1.417384 3.29247363-2.2433878 3.62923656.6966394.27105311 1.2916354.74991351 1.5748711 1.14663671.4495614.677222.5270997 1.2821632.5270997 2.4982059v2.6748012h-3.2112104l-.0120525-1.7170803c0-.8193195.0767347-1.9975791-.5025928-2.652624-.4652298-.4788605-1.1743236-.5827642-2.3205244-.5827642h-3.4177113v4.9524685h-3.1834895v-13.61590008h7.3227489c1.627099 0 2.8259294.04394345 3.8552202.65217015 1.0071943.6082267 1.6110288 1.4961309 1.6110288 3.01484956zm5.0950295 9.94888037h-3.2485734v-13.61590008h3.2485734zm37.6876297 0h-4.511684l-6.0347296-10.21952277v10.21952277h-6.483889l-1.2390057-3.0370267h-6.6136552l-1.2020444 3.0370267h-3.7254541c-1.5475519 0-3.5069004-.3499049-4.6165418-1.5059874-1.1188816-1.1560825-1.7010214-2.7220301-1.7010214-5.19805897 0-2.0193455.3479179-3.86538129 1.7162881-5.32413972 1.0292907-1.08667647 2.6411231-1.58771399 4.8350953-1.58771399h3.0822477v2.91751686h-3.0175655c-1.1618692 0-1.8179316.17659519-2.4498888.80658827-.542768.57331835-.9151929 1.65712001-.9151929 3.08425558 0 1.45875847.2836375 2.51052657.8754194 3.19760507.4901385.5388207 1.3808245.7022739 2.2188809.7022739h1.4298383l4.4871774-10.707829h4.7704131l5.3903178 12.8787178v-12.8787178h4.8475497l5.5964167 9.4827512v-9.4827512h3.261028zm-105.16161625 2.6743904h5.43973336l1.2265514-3.0242953h2.74598061l1.22333738 3.0242953h10.7030972v-2.3121649l.9553682 2.3220214h5.5562417l.9553683-2.3565191v2.3466626h26.5992515l-.0124543-4.9643783h.5146453c.3603723.0127313.4656316.0468182.4656316.6550449v4.3093334h13.7572222v-1.1556718c1.1096414.607816 2.8355715 1.1556718 5.1066803 1.1556718h5.7876513l1.238604-3.0242953h2.7459806l1.2112848 3.0242953h11.1530604v-2.872752l1.6889689 2.872752h8.9373935v-18.9901435h-8.8449904v2.24275895l-1.2386039-2.24275895h-9.0759983v2.24275895l-1.1373623-2.24275895h-12.2594877c-2.0521534 0-3.8560236.29281947-5.3131812 1.10885354v-1.10885354h-8.4601111v1.10885354c-.9272456-.84108594-2.1907582-1.10885354-3.5956879-1.10885354h-30.9080507l-2.0738481 4.90482881-2.1296917-4.90482881h-9.7352747v2.24275895l-1.069466-2.24275895h-8.30262406l-3.85562194 9.02894259v9.96120091z"/><path d="m112 28.6037585h-5.754744c-.574558 0-.956268.0221622-1.277813.2458365-.333101.220391-.4614.5474889-.4614.9792418 0 .5134248.281302.862685.690506 1.0137164.3331.1194297.690904.1543147 1.216851.1543147l1.711322.0471973c1.726862.0439141 2.879563.3496706 3.582421 1.0953883.127901.1038341.204801.220391.292857.3369478zm0 8.9728264c-.767007 1.1553084-2.261575 1.7409656-4.284879 1.7409656h-6.097805v-2.9184361h6.073101c.602449 0 1.024004-.0816719 1.277814-.3369479.219941-.2105411.373343-.5162976.373343-.88772 0-.3964575-.153402-.7112431-.385695-.9000324-.229106-.2076682-.562605-.3020629-1.112459-.3020629-2.964831-.1038341-6.663597.0943947-6.663597-4.2124635 0-1.9740793 1.216851-4.0519927 4.530321-4.0519927h6.289458v-2.707895h-5.843597c-1.763519 0-3.04452.4350362-3.95178 1.1113943v-1.1113943h-8.643471c-1.3822063 0-3.0046751.3529539-3.7720805 1.1113943v-1.1113943h-15.4349693v1.1113943c-1.2284065-.9127551-3.3011183-1.1113943-4.2577852-1.1113943h-10.1810712v1.1113943c-.9718078-.9693919-3.1329744-1.1113943-4.4502342-1.1113943h-11.3943367l-2.6074253 2.9065342-2.4420705-2.9065342h-17.0207811v18.9905605h16.7004312l2.6867158-2.9525002 2.5309238 2.9525002 10.2942296.0094395v-4.4673291h1.0120508c1.3658701.0217518 2.9767839-.034885 4.3980379-.6677395v5.1252187h8.4908667v-4.9495626h.4096017c.52276 0 .5741595.0221623.5741595.5602117v4.3889405h25.793747c1.6376097 0 3.3493302-.4317529 4.2972313-1.2152284v1.2152284h8.1816737c1.702556 0 3.365268-.2458365 4.630331-.8754077zm-12.5952505-5.4371314c.6148005.6554272.9443155 1.4828167.9443155 2.8835511 0 2.9278756-1.7758706 4.2945459-4.9602445 4.2945459h-6.1500013v-2.9184361h6.1252977c.5988631 0 1.0236057-.0816719 1.2897671-.3369479.2171526-.2105411.3729446-.5162976.3729446-.88772 0-.3964575-.1685423-.7112431-.3852964-.9000324-.2414578-.2076682-.574558-.3020629-1.1244123-.3020629-2.9528773-.1038341-6.650847.0943947-6.650847-4.2124635 0-1.9740793 1.2041014-4.0519927 4.5143839-4.0519927h6.3300986v2.8966843h-5.7921976c-.5741595 0-.9475026.0221622-1.2650634.2458365-.3458505.220391-.4741498.5474889-.4741498.9792418 0 .5134248.2936541.862685.6909039 1.0137164.3331002.1194298.690904.1543147 1.228805.1543147l1.6997671.0471974c1.7141112.0430932 2.8907198.3484393 3.6059289 1.0945674zm-28.4920178-.8405227c-.4223519.2581488-.9447136.280311-1.559116.280311h-3.8358318v-3.0567448h3.8880281c.5622061 0 1.1248107.0123124 1.5069197.2458365.4092031.220391.6538485.6418836.6538485 1.2242575s-.2446454 1.0514742-.6538485 1.3063398zm1.9069586 1.6937682c.7028573.2671779 1.2774152.7461281 1.5467642 1.1425856.4458601.6644562.5104082 1.284588.5231585 2.4842207v2.6980452h-3.1700299v-1.7027973c0-.8187709.0765015-2.0311265-.5104082-2.663981-.4613996-.4875688-1.1646553-.6041257-2.3165603-.6041257h-3.3744322v4.970904h-3.172819v-13.6100659h7.289953c1.5985621 0 2.7628189.0726428 3.7991748.642294.9965114.6201318 1.6232656 1.4696835 1.6232656 3.0222702-.0003984 2.172308-1.4069099 3.2808295-2.2380665 3.6206502zm3.9888347-7.2852144h10.5384765v2.814602h-7.3939472v2.4743709h7.2134515v2.7768442h-7.2134515v2.707895l7.3939472.0123123v2.8240415h-10.5384765zm-21.3036684 6.2809375h-4.0804771v-3.4659251h4.1171341c1.1399516 0 1.9312637.4785398 1.9312637 1.6687332 0 1.1770601-.7546551 1.7971919-1.9679207 1.7971919zm-7.2254049 6.0913273-4.8478824-5.5438384 4.8478824-5.3677719zm-12.5195459-1.5985527h-7.7633059v-2.707895h6.9321492v-2.7768442h-6.9321492v-2.4743709h7.9163088l3.4537228 3.9662167zm25.1028431-6.2899665c0 3.7807106-2.7385137 4.5613133-5.4985434 4.5613133h-3.939826v4.565007h-6.1372511l-3.888028-4.5054974-4.0406326 4.5054974h-12.5071941v-13.6100659h12.6996432l3.8848405 4.4611729 4.0163274-4.4611729h10.0894288c2.5058217 0 5.3212353.7145264 5.3212353 4.4837456z"/></g></svg>

<?xml version="1.0" encoding="UTF-8"?>
<svg width="112px" height="42px" viewBox="0 0 112 42" version="1.1" xmlns="http://www.w3.org/2000/svg" xmlns:xlink="http://www.w3.org/1999/xlink">
    <!-- Generator: sketchtool 45.2 (43514) - http://www.bohemiancoding.com/sketch -->
    <title>3AE3123E-DC35-4EBC-91A9-6C61399FEF91</title>
    <desc>Created with sketchtool.</desc>
    <defs></defs>
    <g id="Page-1" stroke="none" stroke-width="1" fill="none" fill-rule="evenodd">
        <g id="PrimeReact-Showcase---Homepage" transform="translate(-1089.000000, -1193.000000)" fill-rule="nonzero" fill="#FFFFFF">
            <g id="homepage" transform="translate(301.000000, 70.000000)">
                <g id="brands" transform="translate(0.000000, 1019.000000)">
                    <g transform="translate(109.000000, 27.000000)" id="amex">
                        <g transform="translate(679.000000, 77.000000)">
                            <path d="M10.2105482,10.4404721 L8.03144088,5.01242867 L5.86478785,10.4404721 L10.2105482,10.4404721 Z M58.2159942,8.27902905 C57.7784854,8.55049282 57.2610277,8.55952793 56.6411231,8.55952793 L52.7734486,8.55952793 L52.7734486,5.53523258 L56.6937527,5.53523258 C57.2485734,5.53523258 57.8274992,5.56069514 58.2035399,5.7808231 C58.6165418,5.97918468 58.8720566,6.4013704 58.8720566,6.98454522 C58.8720566,7.57962995 58.6289961,8.0584904 58.2159942,8.27902905 Z M85.8075753,10.4404721 L83.6043627,5.01242867 L81.4132028,10.4404721 L85.8075753,10.4404721 Z M34.3751776,16.3157531 L31.1113376,16.3157531 L31.099285,5.65186754 L26.4827432,16.3157531 L23.687347,16.3157531 L19.0587526,5.64242175 L19.0587526,16.3157531 L12.5833005,16.3157531 L11.3599631,13.2787264 L4.73104136,13.2787264 L3.49524964,16.3157531 L0.0373630134,16.3157531 L5.73863746,2.69985302 L10.4688753,2.69985302 L15.8837,15.5913021 L15.8837,2.69985302 L21.0799711,2.69985302 L25.2465498,11.936603 L29.074049,2.69985302 L34.3747759,2.69985302 L34.3747759,16.3157531 L34.3751776,16.3157531 Z M47.3835326,16.3157531 L36.7479299,16.3157531 L36.7479299,2.69985302 L47.3835326,2.69985302 L47.3835326,5.53523258 L39.9318211,5.53523258 L39.9318211,7.98949507 L47.2047526,7.98949507 L47.2047526,10.7805205 L39.9318211,10.7805205 L39.9318211,13.4996758 L47.3835326,13.4996758 L47.3835326,16.3157531 L47.3835326,16.3157531 Z M62.3793588,6.36687273 C62.3793588,8.53776154 60.9619748,9.65934636 60.135971,9.99610929 C60.8326104,10.2671624 61.4276064,10.7460228 61.7108421,11.142746 C62.1604035,11.819968 62.2379418,12.4249092 62.2379418,13.6409519 L62.2379418,16.3157531 L59.0267314,16.3157531 L59.0146789,14.5986728 C59.0146789,13.7793533 59.0914136,12.6010937 58.5120861,11.9460488 C58.0468563,11.4671883 57.3377625,11.3632846 56.1915617,11.3632846 L52.7738504,11.3632846 L52.7738504,16.3157531 L49.5903609,16.3157531 L49.5903609,2.69985302 L56.9131098,2.69985302 C58.5402088,2.69985302 59.7390392,2.74379647 60.76833,3.35202317 C61.7755243,3.96024987 62.3793588,4.84815407 62.3793588,6.36687273 Z M67.4743883,16.3157531 L64.2258149,16.3157531 L64.2258149,2.69985302 L67.4743883,2.69985302 L67.4743883,16.3157531 Z M105.162018,16.3157531 L100.650334,16.3157531 L94.6156044,6.09623033 L94.6156044,16.3157531 L88.1317154,16.3157531 L86.8927097,13.2787264 L80.2790545,13.2787264 L79.0770101,16.3157531 L75.351556,16.3157531 C73.8040041,16.3157531 71.8446556,15.9658482 70.7350142,14.8097657 C69.6161326,13.6536832 69.0339928,12.0877356 69.0339928,9.61170673 C69.0339928,7.59236123 69.3819107,5.74632544 70.7502809,4.28756701 C71.7795716,3.20089054 73.391404,2.69985302 75.5853762,2.69985302 L78.6676239,2.69985302 L78.6676239,5.61736988 L75.6500584,5.61736988 C74.4881892,5.61736988 73.8321268,5.79396507 73.2001696,6.42395815 C72.6574016,6.9972765 72.2849767,8.08107816 72.2849767,9.50821373 C72.2849767,10.9669722 72.5686142,12.0187403 73.1603961,12.7058188 C73.6505346,13.2446395 74.5412206,13.4080927 75.379277,13.4080927 L76.8091153,13.4080927 L81.2962927,2.7002637 L86.0667058,2.7002637 L91.4570236,15.5789815 L91.4570236,2.7002637 L96.3045733,2.7002637 L101.90099,12.1830149 L101.90099,2.7002637 L105.162018,2.7002637 L105.162018,16.3157531 Z M0.000401752833,18.9901435 L5.44013511,18.9901435 L6.66668651,15.9658482 L9.41266712,15.9658482 L10.6360045,18.9901435 L21.3391017,18.9901435 L21.3391017,16.6779786 L22.2944699,19 L27.8507116,19 L28.8060799,16.6434809 L28.8060799,18.9901435 L55.4053314,18.9901435 L55.3928771,14.0257652 L55.9075224,14.0257652 C56.2678947,14.0384965 56.373154,14.0725834 56.373154,14.6808101 L56.373154,18.9901435 L70.1303762,18.9901435 L70.1303762,17.8344717 C71.2400176,18.4422877 72.9659477,18.9901435 75.2370565,18.9901435 L81.0247078,18.9901435 L82.2633118,15.9658482 L85.0092924,15.9658482 L86.2205772,18.9901435 L97.3736376,18.9901435 L97.3736376,16.1173915 L99.0626065,18.9901435 L108,18.9901435 L108,0 L99.1550096,0 L99.1550096,2.24275895 L97.9164057,0 L88.8404074,0 L88.8404074,2.24275895 L87.7030451,0 L75.4435574,0 C73.391404,0 71.5875338,0.292819471 70.1303762,1.10885354 L70.1303762,0 L61.6702651,0 L61.6702651,1.10885354 C60.7430195,0.267767595 59.4795069,0 58.0745772,0 L27.1665265,0 L25.0926784,4.90482881 L22.9629867,0 L13.227712,0 L13.227712,2.24275895 L12.158246,0 L3.85562194,0 L0,9.02894259 L0,18.9901435 L0.000401752833,18.9901435 Z" id="Shape"></path>
                            <path d="M112,28.6037585 L106.245256,28.6037585 C105.670698,28.6037585 105.288988,28.6259207 104.967443,28.849595 C104.634342,29.069986 104.506043,29.3970839 104.506043,29.8288368 C104.506043,30.3422616 104.787345,30.6915218 105.196549,30.8425532 C105.529649,30.9619829 105.887453,30.9968679 106.4134,30.9968679 L108.124722,31.0440652 C109.851584,31.0879793 111.004285,31.3937358 111.707143,32.1394535 C111.835044,32.2432876 111.911944,32.3598445 112,32.4764013 L112,28.6037585 Z M112,37.5765849 C111.232993,38.7318933 109.738425,39.3175505 107.715121,39.3175505 L101.617316,39.3175505 L101.617316,36.3991144 L107.690417,36.3991144 C108.292866,36.3991144 108.714421,36.3174425 108.968231,36.0621665 C109.188172,35.8516254 109.341574,35.5458689 109.341574,35.1744465 C109.341574,34.777989 109.188172,34.4632034 108.955879,34.2744141 C108.726773,34.0667459 108.393274,33.9723512 107.84342,33.9723512 C104.878589,33.8685171 101.179823,34.0667459 101.179823,29.7598877 C101.179823,27.7858084 102.396674,25.707895 105.710144,25.707895 L111.999602,25.707895 L111.999602,23 L106.156005,23 C104.392486,23 103.111485,23.4350362 102.204225,24.1113943 L102.204225,23 L93.560754,23 C92.1785477,23 90.5560789,23.3529539 89.7886735,24.1113943 L89.7886735,23 L74.3537042,23 L74.3537042,24.1113943 C73.1252977,23.1986392 71.0525859,23 70.095919,23 L59.9148478,23 L59.9148478,24.1113943 C58.94304,23.1420024 56.7818734,23 55.4646136,23 L44.0702769,23 L41.4628516,25.9065342 L39.0207811,23 L22,23 L22,41.9905605 L38.7004312,41.9905605 L41.387147,39.0380603 L43.9180708,41.9905605 L54.2123004,42 L54.2123004,37.5326709 L55.2243512,37.5326709 C56.5902213,37.5544227 58.2011351,37.4977859 59.6223891,36.8649314 L59.6223891,41.9901501 L68.1132558,41.9901501 L68.1132558,37.0405875 L68.5228575,37.0405875 C69.0456175,37.0405875 69.097017,37.0627498 69.097017,37.6007992 L69.097017,41.9897397 L94.890764,41.9897397 C96.5283737,41.9897397 98.2400942,41.5579868 99.1879953,40.7745113 L99.1879953,41.9897397 L107.369669,41.9897397 C109.072225,41.9897397 110.734937,41.7439032 112,41.114332 L112,37.5765849 Z M99.4047495,32.1394535 C100.01955,32.7948807 100.349065,33.6222702 100.349065,35.0230046 C100.349065,37.9508802 98.5731944,39.3175505 95.3888205,39.3175505 L89.2388192,39.3175505 L89.2388192,36.3991144 L95.3641169,36.3991144 C95.96298,36.3991144 96.3877226,36.3174425 96.653884,36.0621665 C96.8710366,35.8516254 97.0268286,35.5458689 97.0268286,35.1744465 C97.0268286,34.777989 96.8582863,34.4632034 96.6415322,34.2744141 C96.4000744,34.0667459 96.0669742,33.9723512 95.5171199,33.9723512 C92.5642426,33.8685171 88.8662729,34.0667459 88.8662729,29.7598877 C88.8662729,27.7858084 90.0703743,25.707895 93.3806568,25.707895 L99.7107554,25.707895 L99.7107554,28.6045793 L93.9185578,28.6045793 C93.3443983,28.6045793 92.9710552,28.6267415 92.6534944,28.8504158 C92.3076439,29.0708068 92.1793446,29.3979047 92.1793446,29.8296576 C92.1793446,30.3430824 92.4729987,30.6923426 92.8702485,30.843374 C93.2033487,30.9628038 93.5611525,30.9976887 94.0990535,30.9976887 L95.7988206,31.0448861 C97.5129318,31.0879793 98.6895404,31.3933254 99.4047495,32.1394535 Z M70.9127317,31.2989308 C70.4903798,31.5570796 69.9680181,31.5792418 69.3536157,31.5792418 L65.5177839,31.5792418 L65.5177839,28.522497 L69.405812,28.522497 C69.9680181,28.522497 70.5306227,28.5348094 70.9127317,28.7683335 C71.3219348,28.9887245 71.5665802,29.4102171 71.5665802,29.992591 C71.5665802,30.5749649 71.3219348,31.0440652 70.9127317,31.2989308 Z M72.8196903,32.992699 C73.5225476,33.2598769 74.0971055,33.7388271 74.3664545,34.1352846 C74.8123146,34.7997408 74.8768627,35.4198726 74.889613,36.6195053 L74.889613,39.3175505 L71.7195831,39.3175505 L71.7195831,37.6147532 C71.7195831,36.7959823 71.7960846,35.5836267 71.2091749,34.9507722 C70.7477753,34.4632034 70.0445196,34.3466465 68.8926146,34.3466465 L65.5181824,34.3466465 L65.5181824,39.3175505 L62.3453634,39.3175505 L62.3453634,25.7074846 L69.6353164,25.7074846 C71.2338785,25.7074846 72.3981353,25.7801274 73.4344912,26.3497786 C74.4310026,26.9699104 75.0577568,27.8194621 75.0577568,29.3720488 C75.0573584,31.5443568 73.6508469,32.6528783 72.8196903,32.992699 Z M76.808525,25.7074846 L87.3470015,25.7074846 L87.3470015,28.5220866 L79.9530543,28.5220866 L79.9530543,30.9964575 L87.1665058,30.9964575 L87.1665058,33.7733017 L79.9530543,33.7733017 L79.9530543,36.4811967 L87.3470015,36.493509 L87.3470015,39.3175505 L76.808525,39.3175505 L76.808525,25.7074846 L76.808525,25.7074846 Z M55.5048566,31.9884221 L51.4243795,31.9884221 L51.4243795,28.522497 L55.5415136,28.522497 C56.6814652,28.522497 57.4727773,29.0010368 57.4727773,30.1912302 C57.4727773,31.3682903 56.7181222,31.9884221 55.5048566,31.9884221 Z M48.2794517,38.0797494 L43.4315693,32.535911 L48.2794517,27.1681391 L48.2794517,38.0797494 Z M35.7599058,36.4811967 L27.9965999,36.4811967 L27.9965999,33.7733017 L34.9287491,33.7733017 L34.9287491,30.9964575 L27.9965999,30.9964575 L27.9965999,28.5220866 L35.9129087,28.5220866 L39.3666315,32.4883033 L35.7599058,36.4811967 Z M60.8627489,30.1912302 C60.8627489,33.9719408 58.1242352,34.7525435 55.3642055,34.7525435 L51.4243795,34.7525435 L51.4243795,39.3175505 L45.2871284,39.3175505 L41.3991004,34.8120531 L37.3584678,39.3175505 L24.8512737,39.3175505 L24.8512737,25.7074846 L37.5509169,25.7074846 L41.4357574,30.1686575 L45.4520848,25.7074846 L55.5415136,25.7074846 C58.0473353,25.7074846 60.8627489,26.422011 60.8627489,30.1912302 Z" id="Shape"></path>
                        </g>
                    </g>
                </g>
            </g>
        </g>
    </g>
</svg>
